X:275
T: Bucket o' Nails
C: BB
M: 2/4
Q: 1/8=300
L: 1/8
R: polka
K: D
"D"A>B AF|"Em"ED EF|"Bm"A/F/A/B/ dB|"A"AF E2|"D"A>B AF|"A" EA ce|\
"G"dB A/B/A/G/|"D"FD D2 :|
"D"f>a fd|"C"ge =ce|"D"f>a fd|"A"cd e2|"D"f>a fd|"C"ge =ce|\
"D"f/g/a/f/ "A"g/e/c/e/|"D"fd d2 :|
